X:1
T: Ben-A' Chie
C:Alexander Walker
R:Reel
Q:232
K:D
M:4/4
L:1/8
|:A,|D2AD FD AD|A,2EA, CA, EA,|D2AD FD AD|B,E CA, D2DA,|
D2AD FD AD|A,2EA, CA, EA,|D2AD FD AD|B,E CA, D2DA|
d2fd ce cA|Bd BG FA FD|GA BG FA dg|fd ec d3g|
fa fd eg ec|df dA Bd AF|GB GE FA FD|B,E CA, D2D:|
